gama.ui.shared/icons_svg/dark/overlays/small.exp.run.white.svg

<svg height="16" viewBox="-466.274 -3115.658 16 16" width="16" xmlns="http://www.w3.org/2000/svg"><path d="m-462.3246-3112.595v9.883c0 .2426.1955.438.4382.438.08765 0 .1753-.027.2427-.074l7.18645-4.874c.23595-.162.29665-.4856.13485-.7215-.0337-.054-.0809-.1011-.13485-.1349l-7.18645-4.8808c-.20224-.1348-.4719-.0808-.6067.1146-.0472.0742-.0742.1551-.0742.2426zm-.67413 0c0-.2226.06743-.4384.18876-.627.35057-.5057 1.03817-.6406 1.55057-.2967l7.1864 4.8741c.1281.0876.23597.1956.31687.3168.37078.5461.22923 1.2878-.31687 1.6584l-7.1864 4.8741c-.18205.1283-.4045.1888-.627.1888-.61346 0-1.11233-.4989-1.11233-1.1125z" fill="#fff"/></svg>

<?xml version="1.0" encoding="UTF-8" standalone="no"?>
<!DOCTYPE svg PUBLIC "-//W3C//DTD SVG 1.1//EN" "http://www.w3.org/Graphics/SVG/1.1/DTD/svg11.dtd">
<svg xmlns="http://www.w3.org/2000/svg" xmlns:xl="http://www.w3.org/1999/xlink" version="1.1" xmlns:dc="http://purl.org/dc/elements/1.1/" viewBox="-466.2741 -3115.658 16.000008 16.000008" width="16.000008" height="16.000008">
  <defs/>
  <g id="SOURCES" stroke-opacity="1" fill="none" stroke="none" fill-opacity="1" stroke-dasharray="none">
    <title>SOURCES</title>
    <g id="SOURCES_Dark">
      <title>Dark</title>
      <g id="Graphic_11178"/>
      <g id="Graphic_11177">
        <path d="M -462.3246 -3112.595 L -462.3246 -3102.712 C -462.3246 -3102.4694 -462.1291 -3102.274 -461.8864 -3102.274 C -461.79875 -3102.274 -461.7111 -3102.301 -461.6437 -3102.348 L -454.45725 -3107.222 C -454.2213 -3107.384 -454.1606 -3107.7076 -454.3224 -3107.9435 C -454.3561 -3107.9975 -454.4033 -3108.0446 -454.45725 -3108.0784 L -461.6437 -3112.9592 C -461.84594 -3113.094 -462.1156 -3113.04 -462.2504 -3112.8446 C -462.2976 -3112.7704 -462.3246 -3112.6895 -462.3246 -3112.602 Z M -462.99873 -3112.595 C -462.99873 -3112.8176 -462.9313 -3113.0334 -462.80997 -3113.222 C -462.4594 -3113.7277 -461.7718 -3113.8626 -461.2594 -3113.5187 L -454.073 -3108.6446 C -453.9449 -3108.557 -453.83703 -3108.449 -453.75613 -3108.3278 C -453.38535 -3107.7817 -453.5269 -3107.04 -454.073 -3106.6694 L -461.2594 -3101.7953 C -461.44145 -3101.667 -461.6639 -3101.6065 -461.8864 -3101.6065 C -462.49986 -3101.6065 -462.99873 -3102.1054 -462.99873 -3102.719 Z" fill="white"/>
      </g>
    </g>
  </g>
</svg>
